svg/skull_scan_outline.svg

<svg xmlns="http://www.w3.org/2000/svg" viewBox="0 0 24 24"><path d="M2 0C.9 0 0 .9 0 2v4h2V2h4V0zm16 0v2h4v4h2V2c0-1.1-.9-2-2-2zM9.5 13c-.8 0-1.5-.7-1.5-1.5S8.7 10 9.5 10s1.5.7 1.5 1.5-.7 1.5-1.5 1.5m1.5 2 1-2 1 2zm3.5-2c-.8 0-1.5-.7-1.5-1.5s.7-1.5 1.5-1.5 1.5.7 1.5 1.5-.7 1.5-1.5 1.5M0 18v4c0 1.1.9 2 2 2h4v-2H2v-4zm22 0v4h-4v2h4c1.1 0 2-.9 2-2v-4zM12 3c-4.4 0-8 3.6-8 8 0 2 .8 3.9 2 5.3V21h12v-4.7c1.2-1.4 2-3.2 2-5.3 0-4.4-3.6-8-8-8m4 12.4V19h-2v-2h-1v2h-2v-2h-1v2H8v-3.6c-1.2-1.1-2-2.7-2-4.4 0-3.3 2.7-6 6-6s6 2.7 6 6c0 1.8-.8 3.3-2 4.4"/></svg>

<?xml version="1.0" encoding="UTF-8"?><!DOCTYPE svg PUBLIC "-//W3C//DTD SVG 1.1//EN" "http://www.w3.org/Graphics/SVG/1.1/DTD/svg11.dtd"><svg xmlns="http://www.w3.org/2000/svg" xmlns:xlink="http://www.w3.org/1999/xlink" version="1.1" id="mdi-skull-scan-outline" width="24" height="24" viewBox="0 0 24 24"><path d="M2 0C.9 0 0 .9 0 2V6H2V2H6V0H2M18 0V2H22V6H24V2C24 .9 23.1 0 22 0H18M9.5 13C8.7 13 8 12.3 8 11.5S8.7 10 9.5 10 11 10.7 11 11.5 10.3 13 9.5 13M11 15L12 13L13 15H11M14.5 13C13.7 13 13 12.3 13 11.5S13.7 10 14.5 10 16 10.7 16 11.5 15.3 13 14.5 13M0 18V22C0 23.1 .9 24 2 24H6V22H2V18H0M22 18V22H18V24H22C23.1 24 24 23.1 24 22V18H22M12 3C7.6 3 4 6.6 4 11C4 13 4.8 14.9 6 16.3V21H18V16.3C19.2 14.9 20 13.1 20 11C20 6.6 16.4 3 12 3M16 15.4V19H14V17H13V19H11V17H10V19H8V15.4C6.8 14.3 6 12.7 6 11C6 7.7 8.7 5 12 5S18 7.7 18 11C18 12.8 17.2 14.3 16 15.4Z" /></svg>
